build/img/phone.svg

<svg width="17" height="24" viewBox="0 0 17 24" fill="none" xmlns="http://www.w3.org/2000/svg">
<path d="M1.3961 6.62432C1.31155 5.42623 1.57729 4.24606 2.2809 3.29684C2.8909 2.43632 3.68511 1.96636 4.64239 1.69172C5.44868 1.4525 5.97715 1.74561 6.20968 2.64204C6.54186 3.98224 7.01598 5.3225 7.18811 6.73361C7.24247 7.35485 6.84084 8.23322 6.40598 8.6856C5.31583 9.75888 5.54232 10.5399 6.36976 12.1643C6.62644 12.6881 7.03412 13.5934 7.82834 14.7919C8.65577 15.9992 9.09364 16.6472 10.1566 16.0975C11.3374 15.5035 12.198 15.8855 13.0889 16.8444C13.6928 17.5369 14.3572 18.1318 14.9612 18.8243C15.8339 19.8542 15.7946 20.5641 15.1121 21.2915C13.8831 22.6309 11.8538 23.0736 10.3439 22.1766C9.51039 21.6881 8.67994 21.0487 8.0186 20.303C5.10447 16.9825 3.00266 13.1212 1.73735 8.76321C1.53502 8.02654 1.4414 7.28104 1.3961 6.62432Z" stroke="#141517" stroke-width="2" stroke-miterlimit="10"/>
</svg>

<svg width="17" height="24" fill="none" xmlns="http://www.w3.org/2000/svg"><path d="M1.396 6.624c-.084-1.198.181-2.378.885-3.327.61-.86 1.404-1.33 2.361-1.605.807-.24 1.335.054 1.568.95.332 1.34.806 2.68.978 4.092.054.62-.347 1.5-.782 1.952-1.09 1.073-.864 1.854-.036 3.478.256.524.664 1.43 1.458 2.628.828 1.207 1.266 1.855 2.329 1.306 1.18-.594 2.041-.212 2.932.746.604.693 1.268 1.288 1.872 1.98.873 1.03.834 1.74.151 2.467-1.229 1.34-3.258 1.783-4.768.886-.834-.489-1.664-1.128-2.325-1.874-2.915-3.32-5.016-7.182-6.282-11.54a10.989 10.989 0 01-.34-2.139z" stroke="#141517" stroke-width="2" stroke-miterlimit="10"/></svg>
